X:21
T:Fiddle-de dee
T:John Malchairs Third Collection of Tunes
%%VWML:Malchair-3619-p21
F:https://www.vwml.org/record/Malchair/3619/p21
F:www.vwml.org/topics/historic-dance-and-tune-books/Malchair
Z:Peter Dunk Feb 2020
M:6/4
L:1/8
K:F
F3G F2 f3g f2|G4 a2 g2 (fe)(dc)|F3G F2 F3g f2|G4 A2G2 (FE)(DC)|
F3G F2 f3g ag|f4 d2 f4 f2|g2 f2 g2 a2 f2 a2|g2 (ag)(fe) d4 c2|
f3g a2 (ag)(fe) (dc)|A3B A2 G4 D2|F3G F2 f3g f2|G3A G2G2 (FE)(DC)|]
W:
T:Charmer, The
T:John Malchairs Third Collection of Tunes
F:https://www.vwml.org/record/Malchair/3619/p21
F:www.vwml.org/topics/historic-dance-and-tune-books/Malchair
Z:Peter Dunk Feb 2020
M:C|
L:1/8
K:A
e2|a2A2A2a2|g4 ef _g2|f2e2 ^defd|e2B2G2E2|
a2A2A2a2|g4 ef _g2|f2e2 ^defd|e6||
B2|e2B2B2c2|d4(AB _c2)|B2A2G2A2|BABc B2B2|
e2B2B2c2|d4(AB _c2)|B2A2 FABG|A4|]
W:
T:Lord Hereford's Delight
T:John Malchairs Third Collection of Tunes
F:https://www.vwml.org/record/Malchair/3619/p21
F:www.vwml.org/topics/historic-dance-and-tune-books/Malchair
Z:Peter Dunk Feb 2020
M:6/4
L:1/8
K:D
A2|F3E D2 F3G AB|A3G FE D3E F2|E2C2 A,2 G,4 F2|E2C2 A,2 G,4 A2|
F3E D2 F3G AB|A3G FE D3E F2|E2C2 A,2 G,4 C2|D6-D4||
f2|e3d cd e4 a2|e3f ed c4 c2|d3c B2 B4 A2|A6-A4 a2|
agfe d2d2 f2a2|B2c2 d2c2 d2e2|A2G2 F2E2 d2c2|d6 D4|]

